X:1
T:Tula ngemba na ntoto nvimba
T:Tula ngemba na ntoto nvimba
T:Panie ześlij pokój na całą ziemię
T:Hosanna Nysa
Z:Hosanna Nysa
%%score [ ( 1 2 ) ( 3 4 ) ]
L:1/8
M:4/4
K:F
V:1 treble nm="S\nA"
V:2 treble 
V:3 bass nm="T\nB"
V:4 bass 
V:1
 cB | A>F- FF A2 F-F | E3 D C2 BB | A>F- F>F A>F G>E | F6 :| z C | FFFG AF-FA | GABA GF-FC | %8
w: Tu- la|nge- mba _ na nto- to mvim-|ba _ _ sam- bu|Be- to _ ke- le ku- so- sa|yo|Be-|to ze- la ku- fu- la _ ki-|sa- lu na- nga Je- zu _ Ya-|
 FFFG AF-FA | AGBA GF-FF | GFED C4 | (3B2 B2 B2 A>F G>E | F6 z2 |] %13
w: nge me ne yan- ti- ka _ na|aw- wa nto- to Ya- i _ ku-|tu- la nge _ mba|Be- to ke- le ku- so- sa-|yo!|
V:2
 cB | A>F- FF A2 F-F | E3 D C2 BB | A>F- F>F A>F G>E | F6 :| x2 | x8 | x8 | x8 | x8 | x8 | x8 | %12
 x8 |] %13
V:3
 ED | C>A,- A,A, C2 A,-A, | G,3 F, E,2 DD | C>A,- A,>A, C>A, B,>G, | A,6 :| z2 | z8 | z8 | z8 | %9
w: Tu- la|nge- mba _ na nto- to mvim-|ba _ _ sam- bu|Be- to _ ke- le ku- so- sa|yo|||||
 z8 | z8 | (3D2 D2 D2 C>A, B,>G, | A,6 z2 |] %13
w: ||Be- to ke- le ku- so- sa-|yo!|
V:4
 B,G, | F,>F,- F,F, F,2 F,-F, | C,3 C, C,2 F,F, | F,>F,- F,>F, F,>F, C,>C, | F,6 :| x2 | x8 | x8 | %8
 x8 | x8 | x8 | (3F,2 F,2 F,2 F,>F, C,>C, | F,6 z2 |] %13

